X: 63
T: No_158_I_Will_Not_Drink.krn
%%abc-version 2.0
%%abcx-abcm2ps-target-version 5.9.1 (29 Sep 2008)
%%abc-creator hum2abc beta
%%abcx-conversion-date 2020/08/10 18:54:57
%%humdrum-veritas 1094547192
%%humdrum-veritas-data 3469657637
%%linebreak <none>
%%barnumbers 0
L: 1/8
M: 2/4
K: D clef=treble
[K:clef=treble][M:2/4]F3F | 
F3^G/A/ | 
F3F3//A// ||  
[M:3/4]FF FEB,2 ||  
[M:2/4]F2F/G/F/E/ | 
D>ED2 ||  
[M:3/4]B,6 | 
B,B, B,B, B,F, ||  
[M:2/4]B,3C/D/ | 
B,3A,[K:clef=bass] ||  
[M:3/4]F,4z A, | 
F,F, F,F, E,B,, ||  
[M:2/4]F,3G,/F,/ | 
E,4 | 
D,B,,-B,,2- | 
B,,4 |]  


